output/theme/images/clients/wellcome.svg

<svg width="182" height="182" viewBox="0 0 182 182" fill="none" xmlns="http://www.w3.org/2000/svg">
<g clip-path="url(#clip0_1444_1613)">
<rect width="181.42" height="181.42" fill="white"/>
<path d="M181.42 181.42H0V0H181.42V181.42ZM126.42 31.09L114.25 77.17C109.63 59.6 105.39 43.71 104.68 41.1C102.83 34.35 98.33 31.1 91.68 31.1H79.27L67.13 77.2L55 31.09L27.78 34.26C27.78 34.26 42.78 91.18 45.46 101.51C47.21 108.12 50.71 112.59 57.39 114.4C64.3 116.28 78.53 120.51 78.53 120.51L90.69 74.27C94.38 88.27 97.2 98.58 98.3 102.63C99.95 108.63 103.92 112.53 110.84 114.56C120.19 117.31 130.91 120.51 130.91 120.51L153.64 34.08L126.42 31.09ZM104.95 140.47C100.65 140.47 98.11 142.63 97.1 145.54C96.25 142.01 93.03 140.47 89.63 140.47C85.35 140.47 82.1 143.01 81.37 146.97V135H75.61V156.6H81.37V150.68C82.09 154.85 85.25 157 89.45 157C93.05 157 96.02 155.21 97.12 152C98.12 154.89 100.67 157 104.95 157C110.71 157 113.3 153.1 113.3 148.74C113.3 144.38 110.7 140.47 104.95 140.47ZM91.95 150.36C91.9317 150.993 91.6639 151.593 91.2049 152.03C90.746 152.466 90.1332 152.703 89.5 152.69C87.64 152.69 86.96 151.24 86.96 148.69C86.96 146.78 87.43 144.69 89.62 144.69C90.98 144.69 91.8 145.6 91.8 147.17H96.68C96.5202 148.211 96.5202 149.269 96.68 150.31L91.95 150.36ZM104.95 152.69C102.68 152.69 102.35 150.39 102.35 148.69C102.35 146.99 102.68 144.69 104.95 144.69C107.22 144.69 107.55 146.96 107.55 148.69C107.55 150.42 107.21 152.69 104.95 152.69ZM146.95 153.21C145.06 153.21 144.03 151.91 143.88 150.03H155.19C155.19 143.95 152.53 140.47 146.63 140.47C144.819 140.408 143.042 140.97 141.596 142.063C140.151 143.155 139.125 144.711 138.69 146.47V145.8C138.69 143.26 137.36 140.5 133.46 140.5C132.648 140.456 131.834 140.575 131.069 140.85C130.303 141.125 129.599 141.55 129 142.1C128.918 142.185 128.841 142.276 128.77 142.37C128.48 142.68 128.32 142.89 128.21 143.01C127.827 142.246 127.236 141.605 126.506 141.161C125.775 140.717 124.935 140.488 124.08 140.5C123.099 140.436 122.118 140.635 121.239 141.076C120.36 141.517 119.615 142.185 119.08 143.01H118.99V140.89H113.3V156.59H119.06V148.09C119.06 146.43 119.56 145.19 121.06 145.19C122.92 145.19 123.06 146.61 123.06 148.09V156.59H128.85V148.09C128.85 146.43 129.35 145.19 130.85 145.19C132.68 145.19 132.85 146.61 132.85 148.09V156.59H138.61V151.22C139.61 154.93 142.73 156.99 146.81 156.99C150.36 156.99 153.55 155.45 154.76 152.12H149.4C149.098 152.484 148.714 152.772 148.28 152.96C147.845 153.148 147.372 153.23 146.9 153.2L146.95 153.21ZM146.89 144.21C147.259 144.196 147.628 144.258 147.971 144.394C148.315 144.529 148.627 144.735 148.888 144.997C149.148 145.259 149.351 145.573 149.484 145.917C149.617 146.262 149.677 146.631 149.66 147H143.91C144.15 145.18 145.19 144.22 146.84 144.22L146.89 144.21ZM68.21 145.88C67.21 142.39 64.59 140.46 60.21 140.46C58.7168 140.41 57.2399 140.784 55.95 141.538C54.66 142.291 53.6096 143.395 52.92 144.72L54.12 140.85H48L45.85 150.62H45.73L43.66 140.85H38.25L36.25 150.62H36.16L33.86 140.85H27.86L32.64 156.55H38.58L40.88 146.84H41L43.24 156.55H49.18L52 147.49C51.9379 147.911 51.9045 148.335 51.9 148.76C51.9 153.99 55.51 156.96 60.41 156.96C63.78 156.96 66.82 155.56 68.16 152.56V156.56H73.92V135H68.16L68.21 145.88ZM60.46 144.21C60.8251 144.203 61.1879 144.271 61.5258 144.409C61.8637 144.548 62.1696 144.754 62.4245 145.016C62.6795 145.277 62.8781 145.588 63.008 145.929C63.1379 146.271 63.1965 146.635 63.18 147H57.42C57.72 145.18 58.75 144.22 60.4 144.22L60.46 144.21ZM63 152.08C62.7011 152.453 62.3174 152.75 61.8808 152.944C61.4442 153.139 60.9674 153.227 60.49 153.2C58.61 153.2 57.58 151.9 57.42 150.02H68.16V152.08H63Z" fill="#1D1D1B"/>
</g>
<defs>
<clipPath id="clip0_1444_1613">
<rect width="181.42" height="181.42" fill="white"/>
</clipPath>
</defs>
</svg>

<?xml version="1.0" encoding="UTF-8"?>
<svg xmlns="http://www.w3.org/2000/svg" viewBox="0 0 181.42 181.42"><path fill="#1d1d1b" d="M181.42,181.42H0V0H181.42Zm-55-150.33L114.25,77.17c-4.62-17.57-8.86-33.46-9.57-36.07-1.85-6.75-6.35-10-13-10H79.27L67.13,77.2,55,31.09,27.78,34.26s15,56.92,17.68,67.25c1.75,6.61,5.25,11.08,11.93,12.89,6.91,1.88,21.14,6.11,21.14,6.11L90.69,74.27c3.69,14,6.51,24.31,7.61,28.36,1.65,6,5.62,9.9,12.54,11.93,9.35,2.75,20.07,5.95,20.07,5.95l22.73-86.43ZM104.95,140.47c-4.3,0-6.84,2.16-7.85,5.07-.85-3.53-4.07-5.07-7.47-5.07-4.28,0-7.53,2.54-8.26,6.5V135H75.61v21.6h5.76v-5.92c.72,4.17,3.88,6.32,8.08,6.32,3.6,0,6.57-1.79,7.67-5,1,2.89,3.55,5,7.83,5,5.76,0,8.35-3.9,8.35-8.26S110.7,140.47,104.95,140.47Zm-13,9.89a2.4,2.4,0,0,1-2.45,2.33c-1.86,0-2.54-1.45-2.54-4,0-1.91.47-4,2.66-4,1.36,0,2.18.91,2.18,2.48h4.88a10.34,10.34,0,0,0,0,3.14Zm13,2.33c-2.27,0-2.6-2.3-2.6-4s.33-4,2.6-4,2.6,2.27,2.6,4S107.21,152.69,104.95,152.69Zm42,.52c-1.89,0-2.92-1.3-3.07-3.18h11.31c0-6.08-2.66-9.56-8.56-9.56a7.9,7.9,0,0,0-7.94,6v-.67c0-2.54-1.33-5.3-5.23-5.3a6.11,6.11,0,0,0-4.46,1.6,3,3,0,0,0-.23.27c-.29.31-.45.52-.56.64a4.55,4.55,0,0,0-4.13-2.51,5.53,5.53,0,0,0-5,2.51h-.09v-2.12H113.3v15.7h5.76v-8.5c0-1.66.5-2.9,2-2.9,1.86,0,2,1.42,2,2.9v8.5h5.79v-8.5c0-1.66.5-2.9,2-2.9,1.83,0,2,1.42,2,2.9v8.5h5.76v-5.37c1,3.71,4.12,5.77,8.2,5.77,3.55,0,6.74-1.54,7.95-4.87H149.4A3,3,0,0,1,146.9,153.2Zm-.06-9a2.67,2.67,0,0,1,2.77,2.79h-5.75C144.15,145.18,145.19,144.22,146.84,144.22Zm-78.68,1.67c-1-3.49-3.62-5.42-8-5.42a7.92,7.92,0,0,0-7.29,4.26l1.2-3.87H48l-2.15,9.77h-.12l-2.07-9.77H38.25l-2,9.77h-.09l-2.3-9.77h-6l4.78,15.7h5.94l2.3-9.71H41l2.24,9.71h5.94L52,147.49a9.36,9.36,0,0,0-.1,1.27c0,5.23,3.61,8.2,8.51,8.2,3.37,0,6.41-1.4,7.75-4.4v4h5.76V135H68.16Zm-7.75-1.67A2.67,2.67,0,0,1,63.18,147H57.42C57.72,145.18,58.75,144.22,60.4,144.22ZM63,152.08a3,3,0,0,1-2.51,1.12c-1.88,0-2.91-1.3-3.07-3.18H68.16v2.06Z"/></svg>
